public/assets/images/copy-icon-white.svg

<svg width="16" height="20" viewBox="0 0 16 20" fill="none" xmlns="http://www.w3.org/2000/svg">
<path d="M11.5626 0.833008H2.06258C1.19175 0.833008 0.479248 1.58301 0.479248 2.49967V14.1663H2.06258V2.49967H11.5626V0.833008ZM13.9376 4.16634H5.22925C4.35841 4.16634 3.64591 4.91634 3.64591 5.83301V17.4997C3.64591 18.4163 4.35841 19.1663 5.22925 19.1663H13.9376C14.8084 19.1663 15.5209 18.4163 15.5209 17.4997V5.83301C15.5209 4.91634 14.8084 4.16634 13.9376 4.16634ZM13.9376 17.4997H5.22925V5.83301H13.9376V17.4997Z" fill="white"/>
</svg>

<svg width="16" height="20" fill="none" xmlns="http://www.w3.org/2000/svg"><path d="M11.563.833h-9.5C1.192.833.479 1.583.479 2.5v11.666h1.584V2.5h9.5V.833zm2.375 3.333H5.229c-.87 0-1.583.75-1.583 1.667V17.5c0 .916.712 1.666 1.583 1.666h8.709c.87 0 1.583-.75 1.583-1.666V5.833c0-.917-.713-1.667-1.583-1.667zm0 13.334H5.229V5.833h8.709V17.5z" fill="#fff"/></svg>
